X: 10313
Q: "Allegretto."
M: 2/4
L: 1/16
K: Am
E2 |\
e6 {^g}a2 |
e6 {^g}a2 | e2d2c2B2 | dcBc A2(Ac) |\
e6 {^g}a2 | e6 {^g}a2 | e2d2c2B2 | A6 c2 |\


